Newaita-dark/apps/24/nextcloud.svg

<svg height="24" viewBox="0 0 24 24" width="24" xmlns="http://www.w3.org/2000/svg" xmlns:xlink="http://www.w3.org/1999/xlink"><linearGradient id="a" gradientUnits="userSpaceOnUse" x1="11.90739" x2="11.90739" y1="21.02545225" y2="22.01773525002"><stop offset="0" stop-opacity=".27451"/><stop offset="1" stop-opacity="0"/></linearGradient><linearGradient id="b"><stop offset="0" stop-opacity=".313726"/><stop offset=".222222" stop-opacity=".27451"/><stop offset="1" stop-opacity="0"/></linearGradient><radialGradient id="c" cx="450.908936" cy="189.579361" gradientTransform="matrix(.00000013 -.0585994 -.105479 -.00000008 39.097986 47.696499)" gradientUnits="userSpaceOnUse" r="21.166656" xlink:href="#b"/><radialGradient id="d" cx="450.908936" cy="189.579361" gradientTransform="matrix(-.00000013 .0585994 .105479 .00000008 -15.28321 -5.645609)" gradientUnits="userSpaceOnUse" r="21.166656" xlink:href="#b"/><radialGradient id="e" cx="450.908936" cy="189.579361" gradientTransform="matrix(-.00000013 -.0585994 .105479 -.00000008 -15.28321 47.696499)" gradientUnits="userSpaceOnUse" r="21.166656" xlink:href="#b"/><radialGradient id="f" cx="450.908936" cy="189.579361" gradientTransform="matrix(.00000013 .0585994 -.105479 .00000008 39.097985 -5.64561)" gradientUnits="userSpaceOnUse" r="21.166656" xlink:href="#b"/><linearGradient id="g" gradientUnits="userSpaceOnUse" x1="7.93826174998" x2="7.93826174998" y1="21.02545025" y2="2.17207850005"><stop offset="0" stop-color="#2979ff"/><stop offset="1" stop-color="#448aff"/></linearGradient><linearGradient id="h" gradientUnits="userSpaceOnUse" x1="11.90735924339" x2="11.90736" y1="21.02539814717" y2="2.17207777507"><stop offset="0" stop-color="#e0e0e0"/><stop offset="1" stop-color="#eee"/></linearGradient><path d="m4.464844 20.953125h14.882812v1.101563h-14.882812zm0 0" fill="url(#a)"/><path d="m19.347656 21.027344h1.988282v-.996094h-1.988282zm0 0" fill="url(#c)"/><path d="m4.464844 21.027344h-1.984375v.992187h1.984375zm0 0" fill="url(#d)"/><path d="m4.464844 21.027344h-1.984375v-.996094h1.984375zm0 0" fill="url(#e)"/><path d="m19.347656 21.027344h1.988282v.992187h-1.988282zm0 0" fill="url(#f)"/><path d="m3.472656 2.171875h16.867188c.550781 0 .996094.445313.996094.992187v16.867188c0 .550781-.445313.996094-.996094.996094h-16.867188c-.546875 0-.992187-.445313-.992187-.996094v-16.867188c0-.546874.445312-.992187.992187-.992187zm0 0" fill="url(#g)"/><path d="m3.472656 2.171875c-.550781 0-.992187.441406-.992187.992187v.125c0-.550781.441406-.992187.992187-.992187h16.867188c.550781 0 .996094.441406.996094.992187v-.125c0-.550781-.445313-.992187-.996094-.992187zm0 0" fill="#e6e6e6" fill-opacity=".392157"/><path d="m3.472656 21.027344c-.550781 0-.992187-.445313-.992187-.996094v-.121094c0 .546875.441406.992188.992187.992188h16.867188c.550781 0 .996094-.445313.996094-.992188v.121094c0 .550781-.445313.996094-.996094.996094zm0 0" fill-opacity=".196078"/><path d="m74.076259-168.671091h359.798975c11.748878 0 21.247971 9.499093 21.247971 21.164646v359.798974c0 11.748878-9.499093 21.247971-21.247971 21.247971h-359.798975c-11.665552 0-21.164645-9.499093-21.164645-21.247971v-359.798974c0-11.665553 9.499093-21.164646 21.164645-21.164646zm0 0" fill="none" stroke="#212121" stroke-linecap="round" stroke-width="3" transform="matrix(.0468795 0 0 .0468795 0 10.079087)"/><path d="m11.90625 8.621094c-1.273438 0-2.359375.796875-2.785156 1.917968-.347656-.554687-.96875-.925781-1.679688-.925781-1.097656 0-1.984375.886719-1.984375 1.984375 0 1.101563.886719 1.984375 1.984375 1.984375.710938 0 1.332032-.367187 1.679688-.925781.425781 1.125 1.511718 1.917969 2.785156 1.917969 1.277344 0 2.359375-.792969 2.785156-1.917969.351563.558594.972656.925781 1.679688.925781 1.101562 0 1.984375-.882812 1.984375-1.984375 0-1.097656-.882813-1.984375-1.984375-1.984375-.707032 0-1.328125.371094-1.679688.925781-.425781-1.121093-1.507812-1.917968-2.785156-1.917968zm0 1.488281c.824219 0 1.488281.664063 1.488281 1.488281 0 .824219-.664062 1.488282-1.488281 1.488282s-1.488281-.664063-1.488281-1.488282c0-.824218.664062-1.488281 1.488281-1.488281zm-4.464844.992187c.277344 0 .496094.222657.496094.496094 0 .277344-.21875.496094-.496094.496094-.273437 0-.496094-.21875-.496094-.496094 0-.273437.222657-.496094.496094-.496094zm8.929688 0c.277344 0 .496094.222657.496094.496094 0 .277344-.21875.496094-.496094.496094-.273438 0-.496094-.21875-.496094-.496094 0-.273437.222656-.496094.496094-.496094zm0 0" fill="url(#h)"/><path d="m11.90625 8.621094c-1.273438 0-2.359375.796875-2.785156 1.917968-.347656-.554687-.96875-.925781-1.679688-.925781-1.097656 0-1.984375.886719-1.984375 1.984375 0 .042969 0 .085938.003907.125.0625-1.042968.921874-1.859375 1.980468-1.859375.710938 0 1.332032.367188 1.679688.925781.425781-1.125 1.511718-1.917968 2.785156-1.917968 1.277344 0 2.359375.792968 2.785156 1.917968.351563-.558593.972656-.925781 1.679688-.925781 1.058594 0 1.917968.816407 1.980468 1.859375.003907-.039062.003907-.082031.003907-.125 0-1.097656-.882813-1.984375-1.984375-1.984375-.707032 0-1.328125.371094-1.679688.925781-.425781-1.121093-1.507812-1.917968-2.785156-1.917968zm-4.945312 3.101562c-.007813.039063-.015626.082032-.015626.125 0 .273438.222657.496094.496094.496094.277344 0 .496094-.222656.496094-.496094 0-.042968-.003906-.085937-.015625-.125-.054687.214844-.246094.371094-.480469.371094-.230468 0-.425781-.15625-.480468-.371094zm3.464843 0c-.003906.042969-.007812.082032-.007812.125 0 .824219.664062 1.488282 1.488281 1.488282s1.488281-.664063 1.488281-1.488282c0-.042968 0-.082031-.003906-.125-.0625.765625-.699219 1.363282-1.484375 1.363282-.78125 0-1.417969-.597657-1.480469-1.363282zm5.464844 0c-.007813.039063-.015625.082032-.015625.125 0 .273438.222656.496094.496094.496094.277344 0 .496094-.222656.496094-.496094 0-.042968-.003907-.085937-.015626-.125-.054687.214844-.246093.371094-.480468.371094-.230469 0-.425782-.15625-.480469-.371094zm0 0" fill="#fff" fill-opacity=".987097"/><path d="m11.90625 10.105469c-.824219 0-1.488281.664062-1.488281 1.488281 0 .054688.003906.105469.007812.15625.078125-.75.710938-1.332031 1.480469-1.332031.773438 0 1.40625.582031 1.480469 1.332031.007812-.050781.007812-.101562.007812-.15625 0-.824219-.664062-1.488281-1.488281-1.488281zm-4.464844.992187c-.273437 0-.496094.222656-.496094.496094 0 .054688.007813.105469.023438.15625.066406-.199219.253906-.339844.472656-.339844.222656 0 .40625.140625.472656.339844.015626-.050781.023438-.101562.023438-.15625 0-.273438-.21875-.496094-.496094-.496094zm8.929688 0c-.273438 0-.496094.222656-.496094.496094 0 .054688.011719.105469.027344.15625.0625-.199219.25-.339844.46875-.339844.222656 0 .410156.140625.472656.339844.015625-.050781.023438-.101562.023438-.15625 0-.273438-.21875-.496094-.496094-.496094zm-10.90625.652344c-.003906.050781-.007813.101562-.007813.15625 0 1.097656.886719 1.984375 1.984375 1.984375.710938 0 1.332032-.371094 1.679688-.925781.425781 1.121094 1.511718 1.917968 2.785156 1.917968 1.277344 0 2.359375-.796874 2.785156-1.917968.351563.554687.972656.925781 1.679688.925781 1.101562 0 1.984375-.886719 1.984375-1.984375 0-.054688 0-.105469-.003907-.15625-.078124 1.027344-.933593 1.828125-1.980468 1.828125-.707032 0-1.328125-.367187-1.679688-.925781-.425781 1.125-1.507812 1.917968-2.785156 1.917968-1.273438 0-2.359375-.792968-2.785156-1.917968-.347656.558594-.96875.925781-1.679688.925781-1.046875 0-1.898437-.800781-1.976562-1.828125zm0 0" fill-opacity=".235294"/><path d="m959.908384 695.051773c-102.667367 0-190.218066 64.245836-224.545498 154.630911-28.028821-44.720142-78.102782-74.638546-135.420146-74.638546-88.495491 0-159.984731 71.48924-159.984731 159.984731 0 88.810421 71.48924 159.98473 159.984731 159.98473 57.317364 0 107.391325-29.603474 135.420146-74.638545 34.327432 90.700004 121.878131 154.630911 224.545498 154.630911 102.982297 0 190.218065-63.930907 224.545498-154.630911 28.343751 45.035071 78.417712 74.638545 135.420146 74.638545 88.810421 0 159.98473-71.174309 159.98473-159.98473 0-88.495491-71.174309-159.984731-159.98473-159.984731-57.002434 0-107.076395 29.918404-135.420146 74.638546-34.327433-90.385075-121.563201-154.630911-224.545498-154.630911zm0 119.988548c66.450351 0 119.988548 53.538197 119.988548 119.988548 0 66.45035-53.538197 119.988548-119.988548 119.988548s-119.988548-53.538198-119.988548-119.988548c0-66.450351 53.538197-119.988548 119.988548-119.988548zm-359.965644 79.992365c22.36007 0 39.996183 17.951043 39.996183 39.996183 0 22.36007-17.636113 39.996182-39.996183 39.996182-22.04514 0-39.996183-17.636112-39.996183-39.996182 0-22.04514 17.951043-39.996183 39.996183-39.996183zm719.931288 0c22.36007 0 39.996182 17.951043 39.996182 39.996183 0 22.36007-17.636112 39.996182-39.996182 39.996182-22.04514 0-39.996183-17.636112-39.996183-39.996182 0-22.04514 17.951043-39.996183 39.996183-39.996183zm0 0" fill="none" stroke="#212121" stroke-linecap="round" stroke-linejoin="round" stroke-width="11.338583" transform="scale(.0124035)"/></svg>

<?xml version="1.0" encoding="UTF-8"?>
<svg xmlns="http://www.w3.org/2000/svg" xmlns:xlink="http://www.w3.org/1999/xlink" width="24px" height="24px" viewBox="0 0 24 24" version="1.1">
<defs>
<linearGradient id="linear0" gradientUnits="userSpaceOnUse" x1="254" y1="233.5" x2="254" y2="254.666672" gradientTransform="matrix(0.0468795,0,0,0.0468795,-0.0000028613,10.079089)">
<stop offset="0" style="stop-color:rgb(0%,0%,0%);stop-opacity:0.27451;"/>
<stop offset="1" style="stop-color:rgb(0%,0%,0%);stop-opacity:0;"/>
</linearGradient>
<radialGradient id="radial0" gradientUnits="userSpaceOnUse" cx="450.908936" cy="189.579361" fx="450.908936" fy="189.579361" r="21.166656" gradientTransform="matrix(0.000000130628,-0.0585994,-0.105479,-0.0000000761539,39.097986,47.696499)">
<stop offset="0" style="stop-color:rgb(0%,0%,0%);stop-opacity:0.313726;"/>
<stop offset="0.222222" style="stop-color:rgb(0%,0%,0%);stop-opacity:0.27451;"/>
<stop offset="1" style="stop-color:rgb(0%,0%,0%);stop-opacity:0;"/>
</radialGradient>
<radialGradient id="radial1" gradientUnits="userSpaceOnUse" cx="450.908936" cy="189.579361" fx="450.908936" fy="189.579361" r="21.166656" gradientTransform="matrix(-0.000000130628,0.0585994,0.105479,0.0000000761539,-15.28321,-5.645609)">
<stop offset="0" style="stop-color:rgb(0%,0%,0%);stop-opacity:0.313726;"/>
<stop offset="0.222222" style="stop-color:rgb(0%,0%,0%);stop-opacity:0.27451;"/>
<stop offset="1" style="stop-color:rgb(0%,0%,0%);stop-opacity:0;"/>
</radialGradient>
<radialGradient id="radial2" gradientUnits="userSpaceOnUse" cx="450.908936" cy="189.579361" fx="450.908936" fy="189.579361" r="21.166656" gradientTransform="matrix(-0.000000130628,-0.0585994,0.105479,-0.0000000761539,-15.28321,47.696499)">
<stop offset="0" style="stop-color:rgb(0%,0%,0%);stop-opacity:0.313726;"/>
<stop offset="0.222222" style="stop-color:rgb(0%,0%,0%);stop-opacity:0.27451;"/>
<stop offset="1" style="stop-color:rgb(0%,0%,0%);stop-opacity:0;"/>
</radialGradient>
<radialGradient id="radial3" gradientUnits="userSpaceOnUse" cx="450.908936" cy="189.579361" fx="450.908936" fy="189.579361" r="21.166656" gradientTransform="matrix(0.000000130628,0.0585994,-0.105479,0.0000000761539,39.097985,-5.64561)">
<stop offset="0" style="stop-color:rgb(0%,0%,0%);stop-opacity:0.313726;"/>
<stop offset="0.222222" style="stop-color:rgb(0%,0%,0%);stop-opacity:0.27451;"/>
<stop offset="1" style="stop-color:rgb(0%,0%,0%);stop-opacity:0;"/>
</radialGradient>
<linearGradient id="linear1" gradientUnits="userSpaceOnUse" x1="169.333328" y1="233.5" x2="169.333328" y2="-168.666656" gradientTransform="matrix(0.0468795,0,0,0.0468795,0,10.079087)">
<stop offset="0" style="stop-color:rgb(16.078432%,47.450981%,100%);stop-opacity:1;"/>
<stop offset="1" style="stop-color:rgb(26.666668%,54.11765%,100%);stop-opacity:1;"/>
</linearGradient>
<linearGradient id="linear2" gradientUnits="userSpaceOnUse" x1="959.999939" y1="1695.118164" x2="960" y2="175.118134" gradientTransform="matrix(0.0124035,0,0,0.0124035,0,0.00000000000000141)">
<stop offset="0" style="stop-color:rgb(87.843138%,87.843138%,87.843138%);stop-opacity:1;"/>
<stop offset="1" style="stop-color:rgb(93.333334%,93.333334%,93.333334%);stop-opacity:1;"/>
</linearGradient>
</defs>
<g id="surface1">
<path style=" stroke:none;fill-rule:nonzero;fill:url(#linear0);" d="M 4.464844 20.953125 L 19.347656 20.953125 L 19.347656 22.054688 L 4.464844 22.054688 Z M 4.464844 20.953125 "/>
<path style=" stroke:none;fill-rule:nonzero;fill:url(#radial0);" d="M 19.347656 21.027344 L 21.335938 21.027344 L 21.335938 20.03125 L 19.347656 20.03125 Z M 19.347656 21.027344 "/>
<path style=" stroke:none;fill-rule:nonzero;fill:url(#radial1);" d="M 4.464844 21.027344 L 2.480469 21.027344 L 2.480469 22.019531 L 4.464844 22.019531 Z M 4.464844 21.027344 "/>
<path style=" stroke:none;fill-rule:nonzero;fill:url(#radial2);" d="M 4.464844 21.027344 L 2.480469 21.027344 L 2.480469 20.03125 L 4.464844 20.03125 Z M 4.464844 21.027344 "/>
<path style=" stroke:none;fill-rule:nonzero;fill:url(#radial3);" d="M 19.347656 21.027344 L 21.335938 21.027344 L 21.335938 22.019531 L 19.347656 22.019531 Z M 19.347656 21.027344 "/>
<path style=" stroke:none;fill-rule:nonzero;fill:url(#linear1);" d="M 3.472656 2.171875 L 20.339844 2.171875 C 20.890625 2.171875 21.335938 2.617188 21.335938 3.164062 L 21.335938 20.03125 C 21.335938 20.582031 20.890625 21.027344 20.339844 21.027344 L 3.472656 21.027344 C 2.925781 21.027344 2.480469 20.582031 2.480469 20.03125 L 2.480469 3.164062 C 2.480469 2.617188 2.925781 2.171875 3.472656 2.171875 Z M 3.472656 2.171875 "/>
<path style=" stroke:none;fill-rule:nonzero;fill:rgb(90.196079%,90.196079%,90.196079%);fill-opacity:0.392157;" d="M 3.472656 2.171875 C 2.921875 2.171875 2.480469 2.613281 2.480469 3.164062 L 2.480469 3.289062 C 2.480469 2.738281 2.921875 2.296875 3.472656 2.296875 L 20.339844 2.296875 C 20.890625 2.296875 21.335938 2.738281 21.335938 3.289062 L 21.335938 3.164062 C 21.335938 2.613281 20.890625 2.171875 20.339844 2.171875 Z M 3.472656 2.171875 "/>
<path style=" stroke:none;fill-rule:nonzero;fill:rgb(0%,0%,0%);fill-opacity:0.196078;" d="M 3.472656 21.027344 C 2.921875 21.027344 2.480469 20.582031 2.480469 20.03125 L 2.480469 19.910156 C 2.480469 20.457031 2.921875 20.902344 3.472656 20.902344 L 20.339844 20.902344 C 20.890625 20.902344 21.335938 20.457031 21.335938 19.910156 L 21.335938 20.03125 C 21.335938 20.582031 20.890625 21.027344 20.339844 21.027344 Z M 3.472656 21.027344 "/>
<path style="fill:none;stroke-width:3;stroke-linecap:round;stroke-linejoin:miter;stroke:rgb(12.941177%,12.941177%,12.941177%);stroke-opacity:1;stroke-miterlimit:4;" d="M 74.076259 -168.671091 L 433.875234 -168.671091 C 445.624112 -168.671091 455.123205 -159.171998 455.123205 -147.506445 L 455.123205 212.292529 C 455.123205 224.041407 445.624112 233.5405 433.875234 233.5405 L 74.076259 233.5405 C 62.410707 233.5405 52.911614 224.041407 52.911614 212.292529 L 52.911614 -147.506445 C 52.911614 -159.171998 62.410707 -168.671091 74.076259 -168.671091 Z M 74.076259 -168.671091 " transform="matrix(0.0468795,0,0,0.0468795,0,10.079087)"/>
<path style=" stroke:none;fill-rule:nonzero;fill:url(#linear2);" d="M 11.90625 8.621094 C 10.632812 8.621094 9.546875 9.417969 9.121094 10.539062 C 8.773438 9.984375 8.152344 9.613281 7.441406 9.613281 C 6.34375 9.613281 5.457031 10.5 5.457031 11.597656 C 5.457031 12.699219 6.34375 13.582031 7.441406 13.582031 C 8.152344 13.582031 8.773438 13.214844 9.121094 12.65625 C 9.546875 13.78125 10.632812 14.574219 11.90625 14.574219 C 13.183594 14.574219 14.265625 13.78125 14.691406 12.65625 C 15.042969 13.214844 15.664062 13.582031 16.371094 13.582031 C 17.472656 13.582031 18.355469 12.699219 18.355469 11.597656 C 18.355469 10.5 17.472656 9.613281 16.371094 9.613281 C 15.664062 9.613281 15.042969 9.984375 14.691406 10.539062 C 14.265625 9.417969 13.183594 8.621094 11.90625 8.621094 Z M 11.90625 10.109375 C 12.730469 10.109375 13.394531 10.773438 13.394531 11.597656 C 13.394531 12.421875 12.730469 13.085938 11.90625 13.085938 C 11.082031 13.085938 10.417969 12.421875 10.417969 11.597656 C 10.417969 10.773438 11.082031 10.109375 11.90625 10.109375 Z M 7.441406 11.101562 C 7.71875 11.101562 7.9375 11.324219 7.9375 11.597656 C 7.9375 11.875 7.71875 12.09375 7.441406 12.09375 C 7.167969 12.09375 6.945312 11.875 6.945312 11.597656 C 6.945312 11.324219 7.167969 11.101562 7.441406 11.101562 Z M 16.371094 11.101562 C 16.648438 11.101562 16.867188 11.324219 16.867188 11.597656 C 16.867188 11.875 16.648438 12.09375 16.371094 12.09375 C 16.097656 12.09375 15.875 11.875 15.875 11.597656 C 15.875 11.324219 16.097656 11.101562 16.371094 11.101562 Z M 16.371094 11.101562 "/>
<path style=" stroke:none;fill-rule:nonzero;fill:rgb(100%,100%,100%);fill-opacity:0.987097;" d="M 11.90625 8.621094 C 10.632812 8.621094 9.546875 9.417969 9.121094 10.539062 C 8.773438 9.984375 8.152344 9.613281 7.441406 9.613281 C 6.34375 9.613281 5.457031 10.5 5.457031 11.597656 C 5.457031 11.640625 5.457031 11.683594 5.460938 11.722656 C 5.523438 10.679688 6.382812 9.863281 7.441406 9.863281 C 8.152344 9.863281 8.773438 10.230469 9.121094 10.789062 C 9.546875 9.664062 10.632812 8.871094 11.90625 8.871094 C 13.183594 8.871094 14.265625 9.664062 14.691406 10.789062 C 15.042969 10.230469 15.664062 9.863281 16.371094 9.863281 C 17.429688 9.863281 18.289062 10.679688 18.351562 11.722656 C 18.355469 11.683594 18.355469 11.640625 18.355469 11.597656 C 18.355469 10.5 17.472656 9.613281 16.371094 9.613281 C 15.664062 9.613281 15.042969 9.984375 14.691406 10.539062 C 14.265625 9.417969 13.183594 8.621094 11.90625 8.621094 Z M 6.960938 11.722656 C 6.953125 11.761719 6.945312 11.804688 6.945312 11.847656 C 6.945312 12.121094 7.167969 12.34375 7.441406 12.34375 C 7.71875 12.34375 7.9375 12.121094 7.9375 11.847656 C 7.9375 11.804688 7.933594 11.761719 7.921875 11.722656 C 7.867188 11.9375 7.675781 12.09375 7.441406 12.09375 C 7.210938 12.09375 7.015625 11.9375 6.960938 11.722656 Z M 10.425781 11.722656 C 10.421875 11.765625 10.417969 11.804688 10.417969 11.847656 C 10.417969 12.671875 11.082031 13.335938 11.90625 13.335938 C 12.730469 13.335938 13.394531 12.671875 13.394531 11.847656 C 13.394531 11.804688 13.394531 11.765625 13.390625 11.722656 C 13.328125 12.488281 12.691406 13.085938 11.90625 13.085938 C 11.125 13.085938 10.488281 12.488281 10.425781 11.722656 Z M 15.890625 11.722656 C 15.882812 11.761719 15.875 11.804688 15.875 11.847656 C 15.875 12.121094 16.097656 12.34375 16.371094 12.34375 C 16.648438 12.34375 16.867188 12.121094 16.867188 11.847656 C 16.867188 11.804688 16.863281 11.761719 16.851562 11.722656 C 16.796875 11.9375 16.605469 12.09375 16.371094 12.09375 C 16.140625 12.09375 15.945312 11.9375 15.890625 11.722656 Z M 15.890625 11.722656 "/>
<path style=" stroke:none;fill-rule:nonzero;fill:rgb(0%,0%,0%);fill-opacity:0.235294;" d="M 11.90625 10.105469 C 11.082031 10.105469 10.417969 10.769531 10.417969 11.59375 C 10.417969 11.648438 10.421875 11.699219 10.425781 11.75 C 10.503906 11 11.136719 10.417969 11.90625 10.417969 C 12.679688 10.417969 13.3125 11 13.386719 11.75 C 13.394531 11.699219 13.394531 11.648438 13.394531 11.59375 C 13.394531 10.769531 12.730469 10.105469 11.90625 10.105469 Z M 7.441406 11.097656 C 7.167969 11.097656 6.945312 11.320312 6.945312 11.59375 C 6.945312 11.648438 6.953125 11.699219 6.96875 11.75 C 7.035156 11.550781 7.222656 11.410156 7.441406 11.410156 C 7.664062 11.410156 7.847656 11.550781 7.914062 11.75 C 7.929688 11.699219 7.9375 11.648438 7.9375 11.59375 C 7.9375 11.320312 7.71875 11.097656 7.441406 11.097656 Z M 16.371094 11.097656 C 16.097656 11.097656 15.875 11.320312 15.875 11.59375 C 15.875 11.648438 15.886719 11.699219 15.902344 11.75 C 15.964844 11.550781 16.152344 11.410156 16.371094 11.410156 C 16.59375 11.410156 16.78125 11.550781 16.84375 11.75 C 16.859375 11.699219 16.867188 11.648438 16.867188 11.59375 C 16.867188 11.320312 16.648438 11.097656 16.371094 11.097656 Z M 5.464844 11.75 C 5.460938 11.800781 5.457031 11.851562 5.457031 11.90625 C 5.457031 13.003906 6.34375 13.890625 7.441406 13.890625 C 8.152344 13.890625 8.773438 13.519531 9.121094 12.964844 C 9.546875 14.085938 10.632812 14.882812 11.90625 14.882812 C 13.183594 14.882812 14.265625 14.085938 14.691406 12.964844 C 15.042969 13.519531 15.664062 13.890625 16.371094 13.890625 C 17.472656 13.890625 18.355469 13.003906 18.355469 11.90625 C 18.355469 11.851562 18.355469 11.800781 18.351562 11.75 C 18.273438 12.777344 17.417969 13.578125 16.371094 13.578125 C 15.664062 13.578125 15.042969 13.210938 14.691406 12.652344 C 14.265625 13.777344 13.183594 14.570312 11.90625 14.570312 C 10.632812 14.570312 9.546875 13.777344 9.121094 12.652344 C 8.773438 13.210938 8.152344 13.578125 7.441406 13.578125 C 6.394531 13.578125 5.542969 12.777344 5.464844 11.75 Z M 5.464844 11.75 "/>
<path style="fill:none;stroke-width:11.338583;stroke-linecap:round;stroke-linejoin:round;stroke:rgb(12.941177%,12.941177%,12.941177%);stroke-opacity:1;stroke-miterlimit:4;" d="M 959.908384 695.051773 C 857.241017 695.051773 769.690318 759.297609 735.362886 849.682684 C 707.334065 804.962542 657.260104 775.044138 599.94274 775.044138 C 511.447249 775.044138 439.958009 846.533378 439.958009 935.028869 C 439.958009 1023.83929 511.447249 1095.013599 599.94274 1095.013599 C 657.260104 1095.013599 707.334065 1065.410125 735.362886 1020.375054 C 769.690318 1111.075058 857.241017 1175.005965 959.908384 1175.005965 C 1062.890681 1175.005965 1150.126449 1111.075058 1184.453882 1020.375054 C 1212.797633 1065.410125 1262.871594 1095.013599 1319.874028 1095.013599 C 1408.684449 1095.013599 1479.858758 1023.83929 1479.858758 935.028869 C 1479.858758 846.533378 1408.684449 775.044138 1319.874028 775.044138 C 1262.871594 775.044138 1212.797633 804.962542 1184.453882 849.682684 C 1150.126449 759.297609 1062.890681 695.051773 959.908384 695.051773 Z M 959.908384 815.040321 C 1026.358735 815.040321 1079.896932 868.578518 1079.896932 935.028869 C 1079.896932 1001.479219 1026.358735 1055.017417 959.908384 1055.017417 C 893.458033 1055.017417 839.919836 1001.479219 839.919836 935.028869 C 839.919836 868.578518 893.458033 815.040321 959.908384 815.040321 Z M 599.94274 895.032686 C 622.30281 895.032686 639.938923 912.983729 639.938923 935.028869 C 639.938923 957.388939 622.30281 975.025051 599.94274 975.025051 C 577.8976 975.025051 559.946557 957.388939 559.946557 935.028869 C 559.946557 912.983729 577.8976 895.032686 599.94274 895.032686 Z M 1319.874028 895.032686 C 1342.234098 895.032686 1359.87021 912.983729 1359.87021 935.028869 C 1359.87021 957.388939 1342.234098 975.025051 1319.874028 975.025051 C 1297.828888 975.025051 1279.877845 957.388939 1279.877845 935.028869 C 1279.877845 912.983729 1297.828888 895.032686 1319.874028 895.032686 Z M 1319.874028 895.032686 " transform="matrix(0.0124035,0,0,0.0124035,0,0)"/>
</g>
</svg>
